symbols/web/thunderstorm/materialsymbolsrounded/thunderstorm_wght600gradN25fill1_40px.svg

<svg xmlns="http://www.w3.org/2000/svg" height="40" width="40"><path d="m23.708 35.542-1.583-.834q-.708-.333-.833-1.041-.125-.709.375-1.25l2.958-3.459q.208-.25.521-.416.312-.167.687-.167 1.084 0 1.5.958.417.959-.291 1.709l-1.5 1.75 1.583.791q.708.375.833 1.084.125.708-.375 1.25l-2.958 3.458q-.25.25-.563.396-.312.146-.645.146-1.084 0-1.5-.938-.417-.937.291-1.729Zm-10.916 0-1.584-.834q-.708-.333-.833-1.041-.125-.709.375-1.25l2.958-3.459q.417-.208.896-.396.479-.187.313-.187 1.083 0 1.5.958.416.959-.292 1.709l-1.458 1.75 1.583.791q.667.375.792 1.084.125.708-.334 1.25l-3 3.458q-.375.208-.875.375t-.333.167q-1.083 0-1.5-.938-.417-.937.292-1.729Zm-.584-9.334q-3.833 0-6.541-2.729-2.709-2.729-2.709-6.562 0-3.417 2.354-6.105 2.355-2.687 5.896-3.062 1.417-2.333 3.709-3.729Q17.208 2.625 20 2.625q3.833 0 6.542 2.417 2.708 2.416 3.416 6 3.209.291 5.146 2.458 1.938 2.167 1.938 5.083 0 3.167-2.209 5.396-2.208 2.229-5.375 2.229Z"/></svg>

<svg xmlns="http://www.w3.org/2000/svg" height="40" width="40"><path d="M23.708 35.542 22.125 34.708Q21.417 34.375 21.292 33.667Q21.167 32.958 21.667 32.417L24.625 28.958Q24.833 28.708 25.146 28.542Q25.458 28.375 25.833 28.375Q26.917 28.375 27.333 29.333Q27.75 30.292 27.042 31.042L25.542 32.792L27.125 33.583Q27.833 33.958 27.958 34.667Q28.083 35.375 27.583 35.917L24.625 39.375Q24.375 39.625 24.062 39.771Q23.75 39.917 23.417 39.917Q22.333 39.917 21.917 38.979Q21.5 38.042 22.208 37.25ZM12.792 35.542 11.208 34.708Q10.5 34.375 10.375 33.667Q10.25 32.958 10.75 32.417L13.708 28.958Q14.125 28.75 14.604 28.562Q15.083 28.375 14.917 28.375Q16 28.375 16.417 29.333Q16.833 30.292 16.125 31.042L14.667 32.792L16.25 33.583Q16.917 33.958 17.042 34.667Q17.167 35.375 16.708 35.917L13.708 39.375Q13.333 39.583 12.833 39.75Q12.333 39.917 12.5 39.917Q11.417 39.917 11 38.979Q10.583 38.042 11.292 37.25ZM12.208 26.208Q8.375 26.208 5.667 23.479Q2.958 20.75 2.958 16.917Q2.958 13.5 5.312 10.812Q7.667 8.125 11.208 7.75Q12.625 5.417 14.917 4.021Q17.208 2.625 20 2.625Q23.833 2.625 26.542 5.042Q29.25 7.458 29.958 11.042Q33.167 11.333 35.104 13.5Q37.042 15.667 37.042 18.583Q37.042 21.75 34.833 23.979Q32.625 26.208 29.458 26.208Z"/></svg>
